!!!!SEGMENT: pl-cz--iii-323--004_namieyski-jan--sinfonia-d-menuetto.krn
!!!cenid: 17xx:997
!!!COM: Namieyski, Jan
!!!COM-rismid: pe30017685
!!!CDT: <1750->1799
!!!CNT: Polish
!!!OPR: Sinfonia D
!!!OTL: Menuetto
!!!OMV: 004
!!!PDT:
!!!AGN: Secular
!!!SMS-siglum: PL-CZ
!!!SMS-shelfmark: III-323
!!!SMS-shelfwork: 001-004 M
!!!SMS-variant:
!!!SMS-altvar:
!!!NIFC-rismid: 300000906
!!!URL-scan: http://repozytorium.nifc.pl/skany/pl-cz-nut--iii-323
!!!ONB-nifc: UWAGA: części Sinfonii: Allegro moderato, Menuetto (002), Thaema (z wariacjami), Menuetto (004), Allegro
!!!key: D
**kern	**dynam	**kern	**dynam	**kern	**dynam	**kern	**dynam	**kern	**dynam	**kern	**dynam	**kern	**dynam	**kern	**dynam	**kern	**dynam	**kern	**dynam
*part10	*part10	*part9	*part9	*part8	*part8	*part7	*part7	*part6	*part6	*part5	*part5	*part4	*part4	*part3	*part3	*part2	*part2	*part1	*part1
*staff10	*	*staff9	*	*staff8	*	*staff7	*	*staff6	*	*staff5	*	*staff4	*	*staff3	*	*staff2	*	*staff1	*
*I"Basso	*	*I"Viola. Oblig	*	*I"Violino Secundo.	*	*I"Violino Primo.	*	*I"Cornu Secundo in D:	*	*I"Cornu Primo in. D##.	*	*I"Clarinetto Secudo in A:	*	*I"Clarinetto Primo in A.	*	*I"Flauto Secundo	*	*I"Flauto Primo	*
*I'b	*	*I'vla	*	*I'vl II	*	*I'vl I	*	*I'cor II	*	*I'cor I	*	*I'cl II	*	*I'cl I	*	*I'fl II	*	*I'fl I	*
*ICklav	*	*ICstr	*	*ICstr	*	*ICstr	*	*ICbras	*	*ICbras	*	*ICww	*	*ICww	*	*ICww	*	*ICww	*
*Iorgan	*	*Iviola	*	*Ivioln	*	*Ivioln	*	*Icor	*	*Icor	*	*Iclars	*	*Iclars	*	*Iflt	*	*Iflt	*
*clefF4	*	*clefC3	*	*clefG2	*	*clefG2	*	*clefG2	*	*clefG2	*	*clefG2	*	*clefG2	*	*clefG2	*	*clefG2	*
*D:	*	*D:	*	*D:	*	*D:	*	*D:	*	*D:	*	*D:	*	*D:	*	*D:	*	*D:	*
*	*	*	*	*	*	*	*	*ITrd-1c-2	*	*ITrd-1c-2	*	*ITrd2c3	*	*ITrd2c3	*	*	*	*	*
*k[f#c#]	*	*k[f#c#]	*	*k[f#c#]	*	*k[f#c#]	*	*k[f#c#]	*	*k[f#c#]	*	*k[f#c#]	*	*k[f#c#]	*	*k[f#c#]	*	*k[f#c#]	*
*M3/4	*	*M3/4	*	*M3/4	*	*M3/4	*	*M3/4	*	*M3/4	*	*M3/4	*	*M3/4	*	*M3/4	*	*M3/4	*
!LO:TX:a:B:t=Allegro	!	!LO:TX:a:B:t=Alegretto	!	!LO:TX:a:B:t=Allegretto	!	!	!	!	!	!	!	!	!	!LO:TX:a:B:t=Allegro	!	!	!	!	!
4r	.	4r	.	4r	.	(8a\L	.	4r	.	4r	.	4r	.	4r	.	4r	.	4r	.
.	.	.	.	.	.	8cc#\J)	.	.	.	.	.	.	.	.	.	.	.	.	.
=1	=1	=1	=1	=1	=1	=1	=1	=1	=1	=1	=1	=1	=1	=1	=1	=1	=1	=1	=1
!	!	!	!LO:DY:a	!	!	!	!	!	!	!	!	!	!	!LO:TX:a:t=5	!	!	!	!	!
!	!	!	!	!	!LO:DY:t=p&colon;	!	!LO:DY:t=p&colon;	!	!	!	!	!	!	!	!	!	!	!	!
!	!	!	!LO:DY:t=pia	!	!	!	!	!	!	!	!	!	!	!	!	!	!	!	!
!	!	!	!	!	!	!	!	!	!	!	!	!	!	!	!	!LO:TX:t=P:problem: 4\right or middle or left	!	!	!
4r	.	4d\	p	4f#/	p	4dd\	p	2.r	.	2.r	.	2.r	.	2.r	.	2.r	.	2.r	.
4r	.	4d\	.	4f#/	.	4dd\	.	.	.	.	.	.	.	.	.	.	.	.	.
!	!LO:DY:t=p&colon;	!	!	!	!	!	!	!	!	!	!	!	!	!	!	!	!	!	!
4d\	p	4d\	.	4f#/	.	(8ff#\L	.	.	.	.	.	.	.	.	.	.	.	.	.
.	.	.	.	.	.	8dd\J)	.	.	.	.	.	.	.	.	.	.	.	.	.
=2	=2	=2	=2	=2	=2	=2	=2	=2	=2	=2	=2	=2	=2	=2	=2	=2	=2	=2	=2
*2\right	*	*2\right	*	*	*	*	*	*	*	*	*	*	*	*	*	*	*	*	*
2c#\	.	2c#\	.	2A/ 2e	.	(8dd\L	.	2.r	.	2.r	.	2.r	.	2.r	.	2.r	.	2.r	.
.	.	.	.	.	.	8cc#\	.	.	.	.	.	.	.	.	.	.	.	.	.
.	.	.	.	.	.	8b\	.	.	.	.	.	.	.	.	.	.	.	.	.
.	.	.	.	.	.	8a\)	.	.	.	.	.	.	.	.	.	.	.	.	.
4d\	.	4d\	.	4f#/	.	(8ff#\	.	.	.	.	.	.	.	.	.	.	.	.	.
.	.	.	.	.	.	8dd\J)	.	.	.	.	.	.	.	.	.	.	.	.	.
=3	=3	=3	=3	=3	=3	=3	=3	=3	=3	=3	=3	=3	=3	=3	=3	=3	=3	=3	=3
2c#\	.	2c#\	.	2A/ 2e	.	(8dd\L	.	2.r	.	2.r	.	2.r	.	2.r	.	2.r	.	2.r	.
.	.	.	.	.	.	8cc#\	.	.	.	.	.	.	.	.	.	.	.	.	.
.	.	.	.	.	.	8b\	.	.	.	.	.	.	.	.	.	.	.	.	.
.	.	.	.	.	.	8a\)	.	.	.	.	.	.	.	.	.	.	.	.	.
4d\	.	4d\	.	4f#/	.	(8ff#\	.	.	.	.	.	.	.	.	.	.	.	.	.
.	.	.	.	.	.	8dd\J)	.	.	.	.	.	.	.	.	.	.	.	.	.
=4	=4	=4	=4	=4	=4	=4	=4	=4	=4	=4	=4	=4	=4	=4	=4	=4	=4	=4	=4
4c#\	.	4c#\	.	4A/ 4e	.	4cc#\	.	2.r	.	2.r	.	2.r	.	2.r	.	2.r	.	2.r	.
4r	.	4r	.	4r	.	4r	.	.	.	.	.	.	.	.	.	.	.	.	.
!	!	!	!	!	!	!	!LO:DY:t=for	!	!	!	!	!	!	!	!	!	!	!	!
4r	.	4r	.	8A/L	.	8a\L	f	.	.	.	.	.	.	.	.	.	.	.	.
!	!	!	!	!	!LO:DY:a:t=for	!	!	!	!	!	!	!	!	!	!	!	!	!	!
.	.	.	.	8e/J	f	8ee\J	.	.	.	.	.	.	.	.	.	.	.	.	.
!	!	!	!	!	!	!LO:LB:g=original	!	!	!	!	!	!	!	!	!	!	!	!	!
=5	=5	=5	=5	=5	=5	=5	=5	=5	=5	=5	=5	=5	=5	=5	=5	=5	=5	=5	=5
2.r	.	2.r	.	4g/	.	4gg\	.	2.r	.	2.r	.	2.r	.	2.r	.	2.r	.	2.r	.
.	.	.	.	4g/	.	4gg\	.	.	.	.	.	.	.	.	.	.	.	.	.
.	.	.	.	4g/	.	4gg\	.	.	.	.	.	.	.	.	.	.	.	.	.
!	!	!	!	!LO:LB:g=original	!	!	!	!	!	!	!	!	!	!	!	!	!	!	!
=6	=6	=6	=6	=6	=6	=6	=6	=6	=6	=6	=6	=6	=6	=6	=6	=6	=6	=6	=6
!	!	!	!LO:DY:b:t=for&colon;	!	!	!	!	!	!	!	!	!	!	!	!	!	!	!	!
!	!	!	!	!	!	!	!	!	!	!	!	!	!LO:DY:b:t=fo.	!	!LO:DY:t=for&colon;	!	!	!	!
!	!LO:DY:b:t=fo.	!	!	!	!	!	!	!	!	!	!	!	!	!	!	!	!LO:DY:b:t=for	!	!
4c#\	f	4c#\	f	8g/L	.	8gg\L	.	4a/	.	4ee\	.	4ee\	f	4gg\	f	4ee\	f	4gg\	.
.	.	.	.	8e/	.	8ee\	.	.	.	.	.	.	.	.	.	.	.	.	.
4c#\	.	4c#\	.	8e/	.	8ee\	.	4a/	.	4ee\	.	4ee\	.	4gg\	.	4ee\	.	4gg\	.
.	.	.	.	8g/	.	8gg\	.	.	.	.	.	.	.	.	.	.	.	.	.
4d\	.	4d\	.	8f#/	.	8ff#\	.	4dd\	.	4ff#\	.	4dd\	.	4ff#\	.	4dd\	.	4ff#\	.
.	.	.	.	8d/J	.	8dd\J	.	.	.	.	.	.	.	.	.	.	.	.	.
!LO:LB:g=original	!	!LO:LB:g=original	!	!	!	!	!	!	!	!	!	!	!	!	!	!	!	!	!
=7	=7	=7	=7	=7	=7	=7	=7	=7	=7	=7	=7	=7	=7	=7	=7	=7	=7	=7	=7
4G\	.	4e\	.	4B/	.	4b\	.	4r	.	4r	.	4r	.	4r	.	4r	.	4r	.
4A\	.	4c#\	.	4e/	.	4ee\	.	4r	.	4r	.	4ee\	.	4r	.	4r	.	4r	.
4AA/	.	8B\L	.	8c#/L	.	8cc#\L	.	4a/	.	4ee\	.	4ee\	.	4gg\	.	4ee\	.	4gg\	.
.	.	8c#\J	.	8A/J	.	8a\J	.	.	.	.	.	.	.	.	.	.	.	.	.
=8	=8	=8	=8	=8	=8	=8	=8	=8	=8	=8	=8	=8	=8	=8	=8	=8	=8	=8	=8
4D\	.	4f#\	.	4d/	.	4dd\	.	4dd\	.	4ff#\	.	4dd\	.	4ff#\	.	4dd\	.	4ff#\	.
!	!	!	!	!	!	!	!	!	!	!	!	!	!	!LO:N:vis=4	!	!	!	!LO:N:vis=4	!
4d\	.	4r	.	4r	.	4r	.	4r	.	4r	.	4r	.	8r	.	4r	.	8r	.
!	!	!	!	!	!	!	!	!	!	!	!	!	!	!LO:N:vis=4	!	!	!	!LO:N:vis=4	!
.	.	.	.	.	.	.	.	.	.	.	.	.	.	8r	.	.	.	8r	.
!LO:TX:t=P:problem: znak repetycji po 4r	!	!LO:TX:t=P:problem: znak repetycji po 4r	!	!LO:TX:t=P:problem: znak repetycji po 4r	!	!	!LO:DY:a:t=pia	!	!	!	!	!	!	!	!	!	!	!	!
!	!	!	!	!	!	!	!	!LO:LB:g=original	!	!	!	!	!	!	!	!	!	!	!
!	!	!	!	!	!	!	!	!LO:TX:t=P:problem: znak repetycji po 4r	!	!LO:TX:t=P:problem: znak repetycji po 4r	!	!LO:TX:t=P:problem: znak repetycji po 4r	!	!LO:TX:t=P:problem: znak repetycji po 8r	!	!LO:TX:t=P:problem: znak repetycji po 4r	!	!LO:TX:t=P:problem: znak repetycji po 8r	!
!	!	!	!	!	!	!	!	!	!	!	!	!	!	!LO:LB:g=original	!	!	!	!	!
4r	.	4r	.	8A/L	.	8a\L	p	4r	.	4r	.	4r	.	4r	.	4r	.	4r	.
.	.	.	.	8c#/J	.	8cc#\J	.	.	.	.	.	.	.	.	.	.	.	.	.
=9:|!|:	=9:|!|:	=9:|!|:	=9:|!|:	=9:|!|:	=9:|!|:	=9:|!|:	=9:|!|:	=9:|!|:	=9:|!|:	=9:|!|:	=9:|!|:	=9:|!|:	=9:|!|:	=9:|!|:	=9:|!|:	=9:|!|:	=9:|!|:	=9:|!|:	=9:|!|:
!	!LO:DY:t=p&colon;	!	!	!	!	!	!	!	!	!	!	!	!	!LO:TX:a:t=9	!	!	!	!	!
4D\	p	4f#\	.	8c#/L	.	(8cc#\L	.	2.r	.	2.r	.	2.r	.	2.r	.	2.r	.	2.r	.
.	.	.	.	8d/	.	8dd\)	.	.	.	.	.	.	.	.	.	.	.	.	.
4r	.	4r	.	8c#/	.	(8cc#\	.	.	.	.	.	.	.	.	.	.	.	.	.
.	.	.	.	8d/	.	8dd\J)	.	.	.	.	.	.	.	.	.	.	.	.	.
8D\L	.	8d\L	.	8f#/	.	(8ff#\L	.	.	.	.	.	.	.	.	.	.	.	.	.
8F#\J	.	8f#\J	.	8d/J	.	8dd\J)	.	.	.	.	.	.	.	.	.	.	.	.	.
=10	=10	=10	=10	=10	=10	=10	=10	=10	=10	=10	=10	=10	=10	=10	=10	=10	=10	=10	=10
4G\	.	4g\	.	4B/	.	4b\	.	2.r	.	2.r	.	2.r	.	2.r	.	2.r	.	2.r	.
4GG/	.	4G/	.	4r	.	4r	.	.	.	.	.	.	.	.	.	.	.	.	.
4r	.	4r	.	8B/L	.	8b\L	.	.	.	.	.	.	.	.	.	.	.	.	.
.	.	.	.	8d#X/J	.	8dd#X\J	.	.	.	.	.	.	.	.	.	.	.	.	.
=11	=11	=11	=11	=11	=11	=11	=11	=11	=11	=11	=11	=11	=11	=11	=11	=11	=11	=11	=11
4E\	.	4g#X\	.	8d/L	.	(8dd\L	.	2.r	.	2.r	.	2.r	.	2.r	.	2.r	.	2.r	.
.	.	.	.	8e/	.	8ee\	.	.	.	.	.	.	.	.	.	.	.	.	.
4r	.	4r	.	8d/	.	8dd\	.	.	.	.	.	.	.	.	.	.	.	.	.
.	.	.	.	8e/	.	8ee\J)	.	.	.	.	.	.	.	.	.	.	.	.	.
!	!	!	!	!	!	!LO:LB:g=original	!	!	!	!	!	!	!	!	!	!	!	!	!
8E\L	.	8e\L	.	8g/	.	8gg\L	.	.	.	.	.	.	.	.	.	.	.	.	.
8G#X\J	.	8g#\J	.	8e/J	.	8ee\J	.	.	.	.	.	.	.	.	.	.	.	.	.
!	!	!	!	!LO:LB:g=original	!	!	!	!	!	!	!	!	!	!	!	!	!	!	!
=12	=12	=12	=12	=12	=12	=12	=12	=12	=12	=12	=12	=12	=12	=12	=12	=12	=12	=12	=12
4A\	.	4a\	.	4c#/	.	4cc#\	.	2.r	.	2.r	.	2.r	.	2.r	.	2.r	.	2.r	.
4AA/	.	4A/	.	4r	.	4r	.	.	.	.	.	.	.	.	.	.	.	.	.
4r	.	4r	.	4r	.	8a\L	.	.	.	.	.	.	.	.	.	.	.	.	.
.	.	.	.	.	.	8cc#\J	.	.	.	.	.	.	.	.	.	.	.	.	.
=13	=13	=13	=13	=13	=13	=13	=13	=13	=13	=13	=13	=13	=13	=13	=13	=13	=13	=13	=13
4r	.	4d\	.	4f#/	.	4dd\	.	2.r	.	2.r	.	2.r	.	2.r	.	2.r	.	2.r	.
4r	.	4d\	.	4f#/	.	4dd\	.	.	.	.	.	.	.	.	.	.	.	.	.
!	!LO:DY:b:t=pia	!	!	!	!	!	!	!	!	!	!	!	!	!	!	!	!	!	!
4d\	p	4d\	.	4f#/	.	8ff#\L	.	.	.	.	.	.	.	.	.	.	.	.	.
.	.	.	.	.	.	8dd\J	.	.	.	.	.	.	.	.	.	.	.	.	.
=14	=14	=14	=14	=14	=14	=14	=14	=14	=14	=14	=14	=14	=14	=14	=14	=14	=14	=14	=14
2c#\	.	2c#\	.	2A/ 2g	.	8dd\L	.	2.r	.	2.r	.	2.r	.	2.r	.	2.r	.	2.r	.
.	.	.	.	.	.	(8cc#\	.	.	.	.	.	.	.	.	.	.	.	.	.
.	.	.	.	.	.	8b\)	.	.	.	.	.	.	.	.	.	.	.	.	.
.	.	.	.	.	.	8a\J	.	.	.	.	.	.	.	.	.	.	.	.	.
4d\	.	4d\	.	4f#/	.	(8ff#\L	.	.	.	.	.	.	.	.	.	.	.	.	.
.	.	.	.	.	.	8dd\J)	.	.	.	.	.	.	.	.	.	.	.	.	.
!LO:LB:g=original	!	!LO:LB:g=original	!	!	!	!	!	!	!	!	!	!	!	!	!	!	!	!	!
=15	=15	=15	=15	=15	=15	=15	=15	=15	=15	=15	=15	=15	=15	=15	=15	=15	=15	=15	=15
2c#\	.	2c#\	.	2A/ 2g	.	8dd\L	.	2.r	.	2.r	.	2.r	.	2.r	.	2.r	.	2.r	.
.	.	.	.	.	.	(8cc#\	.	.	.	.	.	.	.	.	.	.	.	.	.
.	.	.	.	.	.	8b\	.	.	.	.	.	.	.	.	.	.	.	.	.
.	.	.	.	.	.	8a\J)	.	.	.	.	.	.	.	.	.	.	.	.	.
4d\	.	4d\	.	4f#/	.	(8ff#\L	.	.	.	.	.	.	.	.	.	.	.	.	.
.	.	.	.	.	.	8dd\J)	.	.	.	.	.	.	.	.	.	.	.	.	.
=16	=16	=16	=16	=16	=16	=16	=16	=16	=16	=16	=16	=16	=16	=16	=16	=16	=16	=16	=16
4c#\	.	4c#\	.	4A/ 4e	.	4cc#\	.	2.r	.	2.r	.	2.r	.	2.r	.	2.r	.	2.r	.
4r	.	4r	.	4r	.	4r	.	.	.	.	.	.	.	.	.	.	.	.	.
!	!	!	!	!	!LO:DY:a:t=for	!	!LO:DY:a:t=for	!	!	!	!	!	!	!	!	!	!	!	!
4r	.	4r	.	8A/L	f	8a\L	f	.	.	.	.	.	.	.	.	.	.	.	.
.	.	.	.	8e/J	.	8ee\J	.	.	.	.	.	.	.	.	.	.	.	.	.
=17	=17	=17	=17	=17	=17	=17	=17	=17	=17	=17	=17	=17	=17	=17	=17	=17	=17	=17	=17
2.r	.	2.r	.	4g/	.	4gg\	.	2.r	.	2.r	.	2.r	.	2.r	.	2.r	.	2.r	.
.	.	.	.	4g/	.	4gg\	.	.	.	.	.	.	.	.	.	.	.	.	.
.	.	.	.	4g/	.	4gg\	.	.	.	.	.	.	.	.	.	.	.	.	.
=18	=18	=18	=18	=18	=18	=18	=18	=18	=18	=18	=18	=18	=18	=18	=18	=18	=18	=18	=18
!	!LO:DY:b:t=for	!	!	!	!	!	!	!	!	!	!	!	!	!	!	!	!LO:DY:b:t=for	!	!
4c#\	f	4c#\	.	8g/L	.	8gg\L	.	4a/	.	4ee\	.	4ee\	.	4gg\	.	4ee\	f	4gg\	.
.	.	.	.	8e/	.	8ee\	.	.	.	.	.	.	.	.	.	.	.	.	.
4c#\	.	4c#\	.	8e/	.	8ee\	.	4a/	.	4ee\	.	4ee\	.	4gg\	.	4ee\	.	4gg\	.
.	.	.	.	8g/	.	8gg\J	.	.	.	.	.	.	.	.	.	.	.	.	.
4d\	.	4d\	.	8f#/	.	8ff#\L	.	4dd\	.	4ff#\	.	4dd\	.	4ff#\	.	4dd\	.	4ff#\	.
.	.	.	.	8d/J	.	8dd\J	.	.	.	.	.	.	.	.	.	.	.	.	.
!	!	!	!	!	!	!LO:LB:g=original	!	!	!	!	!	!	!	!	!	!	!	!	!
!	!	!	!	!	!	!	!	!	!	!	!	!LO:LB:g=original	!	!	!	!	!	!	!
=19	=19	=19	=19	=19	=19	=19	=19	=19	=19	=19	=19	=19	=19	=19	=19	=19	=19	=19	=19
4G\	.	4g\	.	4B/	.	4b\	.	4r	.	4r	.	4r	.	4r	.	4r	.	4r	.
4A\	.	4c#\	.	4e/	.	4ee\	.	4r	.	4ee\	.	4r	.	4r	.	4r	.	4r	.
4AA/	.	4c#\	.	8c#/L	.	8cc#\L	.	4a/	.	4ee\	.	4ee\	.	4gg\	.	4ee\	.	4gg\	.
.	.	.	.	8A/J	.	8a\J	.	.	.	.	.	.	.	.	.	.	.	.	.
!	!	!	!	!LO:LB:g=original	!	!	!	!	!	!	!	!	!	!	!	!	!	!LO:LB:g=original	!
=20	=20	=20	=20	=20	=20	=20	=20	=20	=20	=20	=20	=20	=20	=20	=20	=20	=20	=20	=20
*	*	*	*	*	*	*^	*	*	*	*	*	*	*	*	*	*	*	*	*
4D\	.	4d\	.	4d/	.	4dd/	4f#\	.	4dd\	.	4ff#\	.	4dd\	.	4ff#\	.	4dd\	.	4ff#\	.
4d\	.	4r	.	4r	.	4r	4ryy	.	4r	.	4r	.	4r	.	4r	.	4r	.	4r	.
!	!	!	!	!	!	!	!	!	!	!	!	!	!	!	!LO:TX:a:t=Solo	!	!	!	!	!
!LO:TX:a:B:t=Trio	!	!LO:TX:a:B:t=Trio	!	!LO:TX:a:B:t=Trio	!LO:DY:a	!	!	!	!LO:TX:a:B:t=Trio	!	!LO:TX:a:B:t=Trio	!	!	!	!LO:TX:a:B:t=Trio	!	!LO:TX:a:B:t=Trio	!	!LO:TX:a:B:t=Trio	!
!	!	!	!	!	!	!LO:TX:a:B:t=Trio	!	!	!	!	!	!	!	!	!	!	!	!	!	!
!LO:LB:g=original	!	!	!	!	!LO:DY:t=p&colon;	!	!	!	!	!	!	!	!	!	!	!	!	!	!	!
4r	.	4r	.	4d/	p	4d/	4ryy	.	4r	.	4r	.	4r	.	4ff#\	.	4r	.	4ff#\	.
*	*	*	*	*	*	*v	*v	*	*	*	*	*	*	*	*	*	*	*	*	*
!	!	!	!	!	!	!	!	!	!	!	!	!	!	!	!	!	!LO:LB:g=original	!	!
!	!	!LO:LB:g=original	!	!	!	!LO:LB:g=original	!	!	!	!	!	!	!	!	!	!	!	!	!
==21	==21	==21	==21	==21	==21	==21	==21	==21	==21	==21	==21	==21	==21	==21	==21	==21	==21	==21	==21
*k[f#c#]	*	*k[f#c#]	*	*k[f#c#]	*	*k[f#c#]	*	*k[f#c#]	*	*k[f#c#]	*	*k[f#c#]	*	*k[f#c#]	*	*k[f#c#]	*	*k[f#c#]	*
*M3/4	*	*M3/4	*	*M3/4	*	*M3/4	*	*M3/4	*	*M3/4	*	*M3/4	*	*M3/4	*	*M3/4	*	*M3/4	*
!	!	!	!	!	!	!	!	!	!LO:DY:b:t=pia	!	!	!LO:TX:a:B:t=Trio	!	!	!	!	!	!	!
!	!	!	!	!	!	!	!	!	!	!	!	!	!	!	!LO:DY:b:t=pia	!	!	!	!LO:DY:b:t=pia
4DD/	.	4A/	.	4f#'/	.	4a'/	.	4ff#\	p	4aa'\	.	4ff#\	.	4aa\	p	4ff#\	.	4aa\	p
4D\	.	4A/	.	(4f#/	.	(4a/	.	(4ff#\	.	(4aa\	.	4ff#\	.	4aa\	.	4ff#\	.	4aa\	.
4r	.	4r	.	4e/)	.	4g/)	.	4ee\)	.	4gg\)	.	4ee\	.	4gg\	.	4ee\	.	4gg\	.
!	!	!	!	!	!	!	!	!	!	!	!	!	!	!LO:LB:g=original	!	!	!	!	!
=22	=22	=22	=22	=22	=22	=22	=22	=22	=22	=22	=22	=22	=22	=22	=22	=22	=22	=22	=22
4DD/	.	4A/	.	4d'/	.	4f#'/	.	4dd'\	.	4ff#'\	.	4dd\	.	4ff#\	.	4dd\	.	4ff#\	.
4D\	.	4A/	.	(4d/	.	(4f#/	.	(4dd\	.	(4ff#\	.	4dd\	.	4ff#\	.	4dd\	.	4ff#\	.
4r	.	4r	.	4A/) 4c#	.	4e/)	.	4a/)	.	4ee\)	.	4a\	.	4ee\	.	4a/	.	4ee\	.
!	!	!	!	!	!	!	!	!	!	!LO:LB:g=original	!	!	!	!	!	!	!	!	!
=23	=23	=23	=23	=23	=23	=23	=23	=23	=23	=23	=23	=23	=23	=23	=23	=23	=23	=23	=23
4D\	.	4F#/	.	(4f#/	.	(4d/	.	4f#/	.	4dd\	.	4f#/	.	4dd\	.	4f#/	.	4dd\	.
4F#\	.	4A/	.	4d/)	.	4f#/)	.	4dd\	.	4ff#\	.	4dd\	.	4ff#\	.	4dd\	.	4ff#\	.
4A\	.	4A/	.	4d'/	.	4f#'/	.	4dd\	.	4ff#\	.	4dd\	.	4ff#\	.	4dd\	.	4ff#\	.
=24	=24	=24	=24	=24	=24	=24	=24	=24	=24	=24	=24	=24	=24	=24	=24	=24	=24	=24	=24
4AA/	.	4A/	.	(4e/	.	(4g/	.	4ee\	.	4gg\	.	4ee\	.	4gg\	.	4ee\	.	4gg\	.
4D\	.	4A/	.	4d/)	.	4f#/)	.	4dd\	.	4ff#\	.	4dd\	.	4ff#\	.	4dd\	.	4ff#\	.
4r	.	4r	.	4d'/	.	4d'/	.	4r	.	4r	.	4r	.	4dd\	.	4r	.	4dd\	.
!	!	!	!	!LO:LB:g=original	!	!	!	!	!	!	!	!	!	!	!	!	!	!	!
=25	=25	=25	=25	=25	=25	=25	=25	=25	=25	=25	=25	=25	=25	=25	=25	=25	=25	=25	=25
4D\	.	4A/	.	4f#'/	.	4a'/	.	4ff#\	.	4aa'\	.	4ff#\	.	4aa\	.	4ff#\	.	4aa\	.
4d\	.	4A/	.	(4f#/	.	(4a/	.	4ff#\	.	(4aa\	.	4ff#\	.	4aa\	.	4ff#\	.	4aa\	.
4r	.	4r	.	4e/)	.	4g'/)	.	4ee\	.	4gg\)	.	4ee\	.	4gg\	.	4ee\	.	4gg\	.
!	!	!	!	!	!	!	!	!	!	!	!	!LO:LB:g=original	!	!	!	!	!	!	!
=26	=26	=26	=26	=26	=26	=26	=26	=26	=26	=26	=26	=26	=26	=26	=26	=26	=26	=26	=26
4D\	.	4A/	.	4d/	.	(4f#/	.	4dd\	.	4ff#\	.	4dd\	.	4ff#\	.	4dd\	.	4ff#\	.
4d\	.	4A/	.	4d/	.	4f#/)	.	4dd\	.	4ff#\	.	4dd\	.	4ff#\	.	4dd\	.	4ff#\	.
4r	.	4r	.	4A/	.	4e/	.	4a/	.	4ee\	.	4cc#\	.	4ee\	.	4a/	.	4ee\	.
!	!	!	!	!	!	!LO:LB:g=original	!	!	!	!	!	!	!	!	!	!	!	!LO:LB:g=original	!
=27	=27	=27	=27	=27	=27	=27	=27	=27	=27	=27	=27	=27	=27	=27	=27	=27	=27	=27	=27
4D\	.	4A/	.	4d/	.	4d/	.	4f#/	.	4dd\	.	4f#/	.	4dd\	.	4f#/	.	4dd\	.
4A\	.	4e\	.	8c#/L	.	8e/L	.	4a/	.	4ee\	.	4ee\	.	4gg\	.	4dd\	.	4gg\	.
.	.	.	.	8e/	.	8g/	.	.	.	.	.	.	.	.	.	.	.	.	.
4AA/	.	4e\	.	8c#/	.	8e/	.	4a/	.	4ee\	.	4ee\	.	4gg\	.	4dd\	.	4gg\	.
.	.	.	.	8e/J	.	8c#/J	.	.	.	.	.	.	.	.	.	.	.	.	.
!	!	!LO:LB:g=original	!	!	!	!	!	!	!	!	!	!	!	!	!	!	!	!	!
!LO:LB:g=original	!	!	!	!	!	!	!	!LO:LB:g=original	!	!	!	!	!	!	!	!	!	!	!
=28	=28	=28	=28	=28	=28	=28	=28	=28	=28	=28	=28	=28	=28	=28	=28	=28	=28	=28	=28
4D\	.	4d\	.	4d/	.	4d/	.	4dd\	.	4ff#\	.	4dd\	.	4ff#\	.	4dd\	.	4ff#\	.
!LO:TX:t=P:problem:znak repetycji po 4DD	!	!	!	!LO:TX:t=P:problem:znak repetycji po 4r	!	!LO:TX:t=P:problem:znak repetycji po 4r	!	!LO:TX:t=P:problem:znak repetycji po 4r	!	!LO:TX:t=P:problem:znak repetycji po 4r	!	!LO:TX:t=P:problem:znak repetycji po 4r	!	!LO:TX:t=P:problem:znak repetycji po 4r	!	!LO:TX:t=P:problem:znak repetycji po 4r	!	!	!
!	!	!LO:TX:t=P:problem:znak repetycji po 4r	!	!	!	!	!	!	!	!	!	!	!	!	!	!	!	!LO:TX:t=P:problem:znak repetycji po 4r	!
4DD/	.	4r	.	4r	.	4r	.	4r	.	4r	.	4r	.	4r	.	4r	.	4r	.
!	!	!	!	!	!LO:DY:a	!	!	!	!	!	!	!	!	!	!	!	!	!	!
!	!	!	!	!	!	!	!	!	!LO:DY:b:t=for.	!	!	!	!	!	!	!	!	!	!
!	!LO:DY:b:t=fo	!	!	!	!	!	!	!	!	!	!	!	!	!	!	!	!	!	!
(<4AA/	f	4A/	.	4A/	f	(4A/	.	(4a/	f	4a/	.	4r	.	4r	.	4r	.	4r	.
!	!	!	!	!	!	!	!	!	!	!	!	!	!	!	!	!LO:LB:g=original	!	!	!
=29:|!|:	=29:|!|:	=29:|!|:	=29:|!|:	=29:|!|:	=29:|!|:	=29:|!|:	=29:|!|:	=29:|!|:	=29:|!|:	=29:|!|:	=29:|!|:	=29:|!|:	=29:|!|:	=29:|!|:	=29:|!|:	=29:|!|:	=29:|!|:	=29:|!|:	=29:|!|:
!	!	!	!	!	!	!	!LO:DY:b:t=for	!	!	!	!	!	!	!	!	!	!	!	!
4A\)	.	4a\	.	4a/	.	4a/)	f	4aa\)	.	4aa\	.	4r	.	4r	.	4r	.	4r	.
!	!	!	!	!	!LO:DY:a:t=p&colon;	!	!	!	!	!	!	!	!	!	!	!	!	!	!
!	!	!	!	!	!	!	!	!	!	!	!	!	!	!	!LO:DY:b:t=pia	!	!	!	!
4AA/	.	4r	.	4c#/	p	4e/	.	4r	.	4r	.	4cc#\	.	4ee\	p	4cc#\	.	4ee\	.
4AA/	.	4r	.	4e/	.	4g/	.	4r	.	4r	.	4ee\	.	4gg\	.	4ee\	.	4gg\	.
!	!	!	!	!	!	!	!	!	!	!	!	!	!	!LO:LB:g=original	!	!	!	!	!
=30	=30	=30	=30	=30	=30	=30	=30	=30	=30	=30	=30	=30	=30	=30	=30	=30	=30	=30	=30
!	!	!	!	!	!	!	!LO:DY:t=p&colon;	!	!	!	!	!	!	!	!	!	!	!	!
4AA/	.	4r	.	4d/	.	4f#/	p	4r	.	4r	.	4dd\	.	4ff#\	.	4dd\	.	4ff#\	.
4AA/	.	4r	.	4c#/	.	4e/	.	4r	.	4r	.	4cc#\	.	4ee\	.	4cc#\	.	4ee\	.
(<4AA/	.	4A/	.	4A/	.	4A/	.	(4a/	.	4a/	.	4r	.	4r	.	4r	.	4r	.
=31	=31	=31	=31	=31	=31	=31	=31	=31	=31	=31	=31	=31	=31	=31	=31	=31	=31	=31	=31
!	!	!	!	!	!LO:DY:a:t=fo	!	!	!	!	!	!	!	!	!	!	!	!	!	!
!	!	!	!	!	!	!	!LO:DY:b:t=for	!	!	!	!	!	!	!	!	!	!	!	!
4A\)	.	4a\	.	4a/	f	4a/	f	4aa\)	.	4aa\	.	4r	.	4r	.	4r	.	4r	.
4AA/	.	4r	.	4c#/	.	4e/	.	4r	.	4r	.	4cc#\	.	4ee\	.	4cc#\	.	4ee\	.
!	!	!	!	!	!	!	!LO:DY:t=p&colon;	!	!	!	!	!	!	!	!	!	!	!	!
4AA/	.	4r	.	4e/	.	4g/	p	4r	.	4r	.	4ee\	.	4gg\	.	4ee\	.	4gg\	.
!	!	!	!	!LO:LB:g=original	!	!	!	!	!	!	!	!	!	!	!	!	!	!	!
=32	=32	=32	=32	=32	=32	=32	=32	=32	=32	=32	=32	=32	=32	=32	=32	=32	=32	=32	=32
4AA/	.	2.r	.	4d/	.	(4f#/	.	2.r	.	2.r	.	4dd\	.	4ff#\	.	4dd\	.	4ff#\	.
4AA/	.	.	.	4c#/	.	4e/)	.	.	.	.	.	4cc#\	.	4ee\	.	4cc#\	.	4ee\	.
4r	.	.	.	4d/	.	4d/	.	.	.	.	.	4r	.	4r	.	4r	.	4r	.
=33	=33	=33	=33	=33	=33	=33	=33	=33	=33	=33	=33	=33	=33	=33	=33	=33	=33	=33	=33
!	!	!	!	!	!	!	!	!	!LO:DY:b:t=pia	!	!	!	!	!	!	!	!	!	!
4D\	.	4A/	.	4f#'/	.	4a'/	.	4ff#\	p	4aa\	.	4ff#\	.	4aa\	.	4ff#\	.	4aa\	.
4d\	.	4A/	.	(4f#/	.	(4a/	.	(4ff#\	.	4aa\	.	4ff#\	.	4aa\	.	4ff#\	.	4aa\	.
4r	.	4r	.	4e/)	.	4g/)	.	4ee\)	.	4gg\	.	4ee\	.	4gg\	.	4ee\	.	4gg\	.
!	!	!	!	!	!	!LO:LB:g=original	!	!	!	!	!	!	!	!	!	!	!	!	!
!	!	!	!	!	!	!	!	!	!	!LO:LB:g=original	!	!	!	!	!	!	!	!	!
=34	=34	=34	=34	=34	=34	=34	=34	=34	=34	=34	=34	=34	=34	=34	=34	=34	=34	=34	=34
4D\	.	4A/	.	4d/	.	4f#'/	.	4dd\	.	4ff#\	.	4dd\	.	4ff#\	.	4dd\	.	4ff#\	.
4d\	.	4A/	.	4d/	.	(4f#/	.	(4dd\	.	(4ff#\	.	4dd\	.	4ff#\	.	4dd\	.	4ff#\	.
4r	.	4r	.	4A/	.	4e/)	.	4a/)	.	4ee\)	.	4cc#\	.	4ee\	.	4cc#\	.	4ee\	.
!	!	!	!	!	!	!	!	!	!	!	!	!LO:LB:g=original	!	!	!	!	!	!	!
=35	=35	=35	=35	=35	=35	=35	=35	=35	=35	=35	=35	=35	=35	=35	=35	=35	=35	=35	=35
*	*	*^	*	*	*	*	*	*	*	*	*	*	*	*	*	*	*	*	*
4D\	.	4F#/	4ryy	.	4f#/	.	4d/	.	4f#/	.	4dd\	.	4f#/	.	4dd\	.	4f#/	.	4dd\	.
4A\	.	4e/	4c#\	.	8c#/L	.	8e/L	.	4f#/	.	4ee\	.	4ee\	.	4gg\	.	4ee\	.	4ff#\	.
.	.	.	.	.	8e/	.	8g/	.	.	.	.	.	.	.	.	.	.	.	.	.
4AA/	.	4e/	4c#\	.	8c#/	.	8e/	.	4a/	.	4ee\	.	4ee\	.	4gg\	.	4ee\	.	4ff#\	.
.	.	.	.	.	8e/J	.	8c#/J	.	.	.	.	.	.	.	.	.	.	.	.	.
*	*	*v	*v	*	*	*	*	*	*	*	*	*	*	*	*	*	*	*	*	*
!	!	!	!	!	!	!	!	!	!	!	!	!	!	!	!	!	!	!LO:LB:g=original	!
=36	=36	=36	=36	=36	=36	=36	=36	=36	=36	=36	=36	=36	=36	=36	=36	=36	=36	=36	=36
4D\	.	4d\	.	4d/	.	4d/	.	4dd\	.	4ff#\	.	4dd\	.	4ff#\	.	4dd\	.	4ff#\	.
!LO:TX:a:t=Men\nDa\nCap	!	!LO:TX:a:t=Men\nDa\nCap\no.	!	!	!	!LO:TX:a:t=Menuette Da Capo	!	!LO:TX:a:t=Menuetto Da Capo	!	!	!	!LO:TX:a:t=Menutto Da Capo	!	!LO:TX:b:t=M&colon; Da Capo	!	!	!	!LO:TX:a:t=Menuet Da Capo	!
4DD/	.	4r	.	4r	.	4r	.	4r	.	4r	.	4r	.	4r	.	4r	.	4r	.
=:|!	=:|!	=:|!	=:|!	=:|!	=:|!	=:|!	=:|!	=:|!	=:|!	=:|!	=:|!	=:|!	=:|!	=:|!	=:|!	=:|!	=:|!	=:|!	=:|!
*-	*-	*-	*-	*-	*-	*-	*-	*-	*-	*-	*-	*-	*-	*-	*-	*-	*-	*-	*-
!!!system-decoration: [(s1,s2,s3,s4)][(s5,s6)][(s7,s8,s9)]s10
!!!RDF**kern: > = above
!!!RDF**kern: < = below
!!!ENC: Berenika Jozajtis
!!!END: 2020-08-22
!!!AIN: 2 clars 2 cor 2 flt 1 organ 1 viola 2 violn
!!!ENC: Jan Barakat
!!!END: 2022-03-09
